assets/icon-cofre.svg

<?xml version="1.0" encoding="UTF-8"?>
<!DOCTYPE svg PUBLIC "-//W3C//DTD SVG 1.1//EN" "http://www.w3.org/Graphics/SVG/1.1/DTD/svg11.dtd">
<!-- Creator: CorelDRAW 2017 -->
<svg xmlns="http://www.w3.org/2000/svg" xml:space="preserve" width="100%" height="100%" version="1.1" style="shape-rendering:geometricPrecision; text-rendering:geometricPrecision; image-rendering:optimizeQuality; fill-rule:evenodd; clip-rule:evenodd"
viewBox="0 0 1.4855 1.48857"
 xmlns:xlink="http://www.w3.org/1999/xlink">
 <defs>
  <style type="text/css">
   <![CDATA[
    .fil0 {fill:#FEFEFE}
   ]]>
  </style>
 </defs>
 <g id="Camada_x0020_1">
  <metadata id="CorelCorpID_0Corel-Layer"/>
  <path class="fil0" d="M1.38058 0.91481l0.00448 -0.04031c0.00474,-0.01317 0.05297,-0.03288 0.07264,-0.06369 0.00949,-0.01487 0.02656,-0.03462 0.02773,-0.07836 0.00102,-0.03807 -0.01051,-0.0713 -0.02733,-0.09838 -0.00641,-0.01032 -0.0167,-0.02917 -0.03396,-0.02758 -0.0216,0.00199 -0.01936,0.02135 -0.02065,0.04185 -0.00176,0.02801 -0.01576,0.07627 -0.03752,0.08608 -0.02021,-0.07373 -0.079,-0.14926 -0.13425,-0.19449 -0.02985,-0.02444 -0.06259,-0.04818 -0.09592,-0.0686 -0.03402,-0.02085 -0.0491,-0.00213 -0.04486,0.0185 0.00288,0.01404 0.03459,0.02803 0.04683,0.03605 0.02207,0.01444 0.04988,0.0351 0.07047,0.05348 0.03652,0.03259 0.06793,0.06895 0.09145,0.11291 0.0402,0.07512 0.02054,0.13477 0.08736,0.08556 0.03736,-0.02751 0.0348,-0.04543 0.05086,-0.06974 0.00455,0.00774 0.00093,-0.0001 0.00203,0.00632l0.00036 0.01809c-0.00184,0.04526 -0.03483,0.07941 -0.0751,0.09922 -0.03852,0.01895 -0.02198,0.02102 -0.02862,0.07216 -0.01007,0.07763 -0.04348,0.15144 -0.09025,0.21023 -0.01589,0.01997 -0.03075,0.03539 -0.0481,0.05189 -0.00778,0.0074 -0.02134,0.0142 -0.02245,0.02758 -0.00108,0.01306 0.05115,0.17394 0.05721,0.19236 0.00934,0.02839 -0.02,0.04684 -0.04352,0.05186 -0.08329,0.01778 -0.15515,-0.03159 -0.20665,-0.0858 -0.01959,-0.02062 -0.03393,-0.04867 -0.05608,-0.04047 -0.01501,0.00556 -0.02152,0.00884 -0.03725,0.01298 -0.06875,0.01809 -0.16435,0.01381 -0.23428,0.00623 -0.10286,-0.01115 -0.07922,-0.02775 -0.10992,0.01392 -0.03423,0.04648 -0.08149,0.09201 -0.15302,0.09764 -0.03064,0.00241 -0.06151,-0.00054 -0.08462,-0.01598 -0.02901,-0.01938 -0.01599,-0.04327 -0.00784,-0.07331 0.00756,-0.02784 0.01417,-0.05077 0.02107,-0.07829 0.00336,-0.01342 0.00663,-0.02703 0.01061,-0.04023 0.01096,-0.03634 -0.02272,-0.02935 -0.06669,-0.07804 -0.03097,-0.0343 -0.06024,-0.07626 -0.08134,-0.11894 -0.00482,-0.00975 -0.01105,-0.02353 -0.01534,-0.03483 -0.0052,-0.01372 -0.00495,-0.02667 -0.01849,-0.03156 -0.02624,-0.00948 -0.05619,0.01059 -0.08565,-0.01459 -0.01283,-0.01096 -0.01299,-0.01896 -0.0168,-0.03101 -0.0059,-0.01871 -0.00411,-0.04448 -0.00475,-0.06265 -0.00003,-0.03045 -0.00308,-0.06505 0.01277,-0.08691 0.01834,-0.02532 0.0446,-0.02223 0.07859,-0.02231 0.02163,-0.00006 0.02537,-0.00437 0.03114,-0.02199 0.015,-0.04581 0.03997,-0.09317 0.07244,-0.13008l0.01222 -0.01372c0.056,-0.06256 0.08114,-0.05541 0.106,-0.12231 0.01714,-0.04613 0.00158,-0.05648 -0.00374,-0.08386 0.03459,-0.01708 0.08599,0.00999 0.10768,0.03477 0.03583,0.04094 0.03559,-0.01779 0.19508,-0.0245 0.02852,-0.0012 0.07782,0.00931 0.07828,-0.02226 0.00026,-0.01757 -0.01226,-0.02256 -0.02813,-0.02298 -0.04636,-0.00125 -0.0959,0.00106 -0.14014,0.01072 -0.03148,0.00687 -0.04882,0.01479 -0.07764,0.02328 -0.00838,-0.01406 -0.04465,-0.03455 -0.06554,-0.04088 -0.06721,-0.02037 -0.1669,0.01255 -0.11971,0.05416 0.02414,0.02129 0.01762,0.046 0.00307,0.0745 -0.00818,0.01602 -0.01169,0.01811 -0.02536,0.02888 -0.04941,0.03888 -0.09087,0.08526 -0.122,0.14087 -0.0144,0.02572 -0.02101,0.04334 -0.03243,0.07027 -0.03615,0 -0.05413,-0.00117 -0.081,0.01634 -0.01867,0.01216 -0.03298,0.0304 -0.04013,0.05403 -0.00361,0.01193 -0.00467,0.06467 -0.00329,0.10043 0.00045,0.01143 0.00867,0.07867 0.01088,0.08364 0.02751,0.06173 0.10098,0.04937 0.11025,0.05187 0.00322,0.00087 0.02842,0.05691 0.03228,0.06401 0.02191,0.04035 0.04829,0.07746 0.07951,0.11096 0.00702,0.00753 0.0161,0.01619 0.02465,0.02347 0.00869,0.0074 0.01773,0.01314 0.02627,0.02022 -0.00176,0.01219 -0.00658,0.02926 -0.00967,0.03881l-0.01219 0.04766c-0.00113,0.00583 0.00018,0.00449 -0.00191,0.01024 -0.00339,0.00933 -0.00102,-0.00034 -0.00381,0.00818 -0.00096,0.00292 -0.00162,0.00725 -0.00243,0.01049 -0.00253,0.01021 -0.00775,0.02566 -0.00951,0.0355 -0.01003,0.05611 0.04222,0.09105 0.08713,0.09992 0.08088,0.01598 0.15643,-0.01431 0.21009,-0.06668 0.07199,-0.07026 0.00838,-0.05094 0.12873,-0.03999 0.05852,0.00532 0.1207,0.00607 0.17902,-0.00081 0.02932,-0.00346 0.07207,-0.01501 0.07919,-0.0157 0.00914,0.00798 0.01767,0.01934 0.02538,0.02737 0.02384,0.02483 0.05555,0.05035 0.08379,0.06663 0.02389,0.01377 0.04651,0.02226 0.07452,0.02759 0.02483,0.00473 0.07193,0.00364 0.09414,-0.00271 0.02697,-0.00772 0.04773,-0.02246 0.06079,-0.04201 0.01944,-0.02911 0.01299,-0.04888 0.00387,-0.08016 -0.0106,-0.03636 -0.04169,-0.12517 -0.04702,-0.15439 0.08375,-0.08088 0.13715,-0.16887 0.15604,-0.28862zm-0.64472 -0.68543c0.0002,0.00709 0.00513,0.06006 0.01291,0.08447 0.00713,0.02296 0.01817,0.04294 0.03291,0.06301l0.04889 0.04929c0.20088,0.14369 0.44626,-0.08482 0.33248,-0.30444 -0.04736,-0.09144 -0.15737,-0.14337 -0.26015,-0.11301 -0.01951,0.00576 -0.06147,0.01598 -0.05409,0.04378 0.00379,0.01428 0.01868,0.0189 0.03262,0.01324 0.01477,-0.006 0.01995,-0.00972 0.03635,-0.01422 0.07829,-0.02146 0.15752,0.01516 0.19803,0.07921 0.07649,0.12095 0.00132,0.27986 -0.13508,0.29381 -0.14104,0.01442 -0.24052,-0.1389 -0.18372,-0.26726 0.00366,-0.00826 0.01401,-0.02419 0.01638,-0.0314 0.00482,-0.01464 -0.00506,-0.02777 -0.01741,-0.02985 -0.02348,-0.00397 -0.03736,0.03493 -0.04427,0.05241 -0.01078,0.02726 -0.0138,0.04957 -0.01585,0.08096zm0.20425 -0.11224c-0.0143,0.00656 -0.0324,0.00854 -0.04672,0.03243 -0.01133,0.01889 -0.01313,0.04709 -0.00044,0.06573 0.02877,0.04223 0.07904,0.02738 0.11069,0.0516 0.00157,0.02699 -0.02208,0.04892 -0.04838,0.04251 -0.03531,-0.00861 -0.02631,-0.04093 -0.04657,-0.04953 -0.014,-0.00594 -0.04659,0.00382 -0.02066,0.05043 0.00575,0.01034 0.01392,0.01947 0.02214,0.02612 0.01074,0.00869 0.02384,0.01183 0.03028,0.01721 0.0009,0.01678 -0.00617,0.04938 0.02264,0.04932 0.02685,-0.00005 0.02284,-0.02754 0.02255,-0.049 0.01901,-0.0101 0.03111,-0.01035 0.0477,-0.03435 0.01098,-0.01589 0.0205,-0.04305 0.01381,-0.06382 -0.01622,-0.05035 -0.07149,-0.03881 -0.10797,-0.05847 -0.02453,-0.01322 -0.00359,-0.03799 0.02601,-0.03678 0.04131,0.00168 0.02543,0.03035 0.04637,0.03672 0.01334,0.00406 0.02458,-0.00206 0.02853,-0.01127 0.00505,-0.01175 -0.00073,-0.02538 -0.00567,-0.03403 -0.00467,-0.00816 -0.01232,-0.01617 -0.02024,-0.02171 -0.01102,-0.0077 -0.01839,-0.00753 -0.02814,-0.01311 -0.00139,-0.02245 0.00453,-0.04976 -0.02287,-0.04966 -0.02775,0.0001 -0.02071,0.02899 -0.02306,0.04966zm-0.30503 0.3788c0.0015,0.02688 0.03068,0.01947 0.05196,0.01723 0.11806,-0.01243 0.25308,0.02902 0.35031,0.09105 0.03004,0.01916 0.04188,-0.0056 0.04142,-0.01595 -0.0008,-0.01768 -0.02848,-0.02888 -0.04017,-0.03563 -0.04197,-0.02421 -0.10843,-0.05326 -0.15645,-0.06559 -0.06843,-0.01756 -0.12962,-0.02584 -0.20138,-0.01867 -0.02002,0.00199 -0.04704,0.0033 -0.04569,0.02756zm-0.37275 0.1924c0.00372,0.01803 0.02381,0.03592 0.04852,0.03061 0.02115,-0.00454 0.03725,-0.02481 0.03179,-0.05044 -0.01077,-0.05044 -0.09204,-0.03696 -0.08031,0.01983z"/>
 </g>
</svg>

<svg xmlns="http://www.w3.org/2000/svg" width="100%" height="100%" fill-rule="evenodd" clip-rule="evenodd" image-rendering="optimizeQuality" shape-rendering="geometricPrecision" text-rendering="geometricPrecision" version="1.1" viewBox="0 0 1.486 1.489" xml:space="preserve">
  <path fill="#fefefe" d="M1.38.915l.005-.04C1.39.86 1.438.842 1.458.81c.01-.015.026-.035.027-.079a.176.176 0 0 0-.027-.098c-.006-.01-.017-.03-.034-.028-.021.002-.02.022-.02.042-.002.028-.016.077-.038.086A.422.422 0 0 0 1.232.54.877.877 0 0 0 1.136.47C1.102.451 1.086.47 1.09.49c.003.014.035.028.047.036.022.014.05.035.07.053A.411.411 0 0 1 1.3.692c.04.075.02.135.087.086.037-.028.035-.046.05-.07.005.008.002 0 .003.006v.018c-.002.046-.035.08-.075.1-.038.019-.022.02-.028.072a.432.432 0 0 1-.139.262c-.008.007-.021.014-.022.028-.001.013.05.174.057.192.01.028-.02.047-.044.052-.083.018-.155-.032-.206-.086-.02-.02-.034-.049-.056-.04l-.038.013a.717.717 0 0 1-.234.006c-.103-.011-.079-.028-.11.014-.034.046-.081.092-.153.097a.134.134 0 0 1-.084-.016c-.03-.02-.016-.043-.008-.073.007-.028.014-.05.02-.078l.011-.04c.011-.037-.022-.03-.066-.079a.54.54 0 0 1-.097-.153C.163.989.163.976.15.97.123.961.093.981.064.957.051.946.051.937.047.926.041.906.043.88.042.863.042.833.04.798.055.776.074.751.1.754.134.754c.021 0 .025-.005.03-.022a.38.38 0 0 1 .073-.13L.25.588C.306.525.33.532.356.466.373.419.357.409.352.382.386.365.438.392.46.416.495.457.495.4.655.392.683.391.732.402.733.37.733.352.72.347.705.347a.598.598 0 0 0-.14.01C.533.364.515.372.487.381.479.367.442.346.421.34.354.32.255.352.301.394.327.415.32.44.306.468.297.485.293.487.279.498a.472.472 0 0 0-.122.14C.143.664.137.682.125.708c-.036 0-.054 0-.081.017a.097.097 0 0 0-.04.054.567.567 0 0 0 .007.184c.028.062.101.05.11.052.004 0 .03.057.033.064a.54.54 0 0 0 .104.134l.026.02a.276.276 0 0 1-.01.04l-.011.047-.002.01-.004.008-.003.01c-.002.011-.007.027-.01.036-.01.056.043.091.088.1a.234.234 0 0 0 .21-.066c.072-.07.009-.051.129-.04.058.005.12.006.179-.001.03-.004.072-.015.08-.016l.024.027c.024.025.056.05.084.067a.227.227 0 0 0 .169.025.106.106 0 0 0 .06-.042c.02-.03.014-.049.005-.08-.011-.037-.042-.125-.047-.155A.49.49 0 0 0 1.38.915zM.737.229c0 .007.005.06.013.085a.21.21 0 0 0 .033.063l.049.05c.2.143.446-.086.332-.305a.226.226 0 0 0-.26-.113C.883.014.84.025.849.052c.004.015.018.02.032.014C.896.06.901.056.918.052a.18.18 0 0 1 .198.079c.076.12.001.28-.135.294C.84.439.74.285.797.157.801.15.811.133.813.126a.023.023 0 0 0-.017-.03C.772.092.759.131.752.148A.244.244 0 0 0 .736.23zM.94.117C.926.124.908.126.893.15.883.168.88.197.893.215c.029.043.079.028.11.052.002.027-.021.049-.048.042C.92.301.93.27.91.26.895.255.862.265.888.31.894.32.902.33.91.336c.01.01.024.012.03.018C.941.37.934.403.963.403.99.403.986.375.986.354c.019-.01.03-.01.047-.034.011-.016.02-.043.014-.064C1.031.206.976.217.94.197.915.184.936.16.965.161c.042.001.026.03.047.036.013.004.024-.002.028-.011.005-.012 0-.025-.006-.034a.071.071 0 0 0-.02-.022C1.004.123.996.123.986.117.985.095.991.067.963.067s-.02.03-.023.05zM.635.496c.002.027.03.02.052.017a.58.58 0 0 1 .35.091c.03.02.042-.005.042-.016C1.078.571 1.05.56 1.039.553A.724.724 0 0 0 .882.487.552.552 0 0 0 .681.468C.66.47.634.472.635.496zM.262.688a.041.041 0 0 0 .08-.02C.333.619.252.633.263.689z"/>
</svg>
